src/assets/icons/save.svg

<svg xmlns="http://www.w3.org/2000/svg" viewBox="0 0 32 32"><path d="M25 3H7v12h18zm-1 20h-3v6h3zm-5 0H8v6h11zM29 3h-2v14H5V3H3v26h3v-8h20v8h.58L29 26.58zM1 31V1h30v26.41L27.41 31z"/></svg>

<svg xmlns="http://www.w3.org/2000/svg" xmlns:xlink="http://www.w3.org/1999/xlink" width="32" height="32" viewBox="0 0 32 32">
  <g id="save">
    <path d="M25,3H7V15H25ZM24,23H21v6h3Zm-5,0H8v6H19ZM29,3H27V17H5V3H3V29H6V21H26v8h.58L29,26.58ZM1,31V1H31V27.41L27.41,31Z"/>
  </g>
</svg>
